src/assets/images/logo.svg

<svg fill="none" height="46" viewBox="0 0 178 46" width="178" xmlns="http://www.w3.org/2000/svg"><g fill="#000"><path d="m8.50691 33.89c-1.69608 0-3.32591-.2385-4.88948-.7155-1.53708-.5035-2.742888-1.1263-3.61743-1.8683l1.27206-2.2262c.87454.6891 1.97435 1.2589 3.29941 1.7094 1.32507.424 2.70313.636 4.1342.636 1.90813 0 3.31263-.2915 4.21373-.8745.9275-.6096 1.3913-1.4576 1.3913-2.5442 0-.7685-.2518-1.3648-.7553-1.7888-.5035-.4505-1.1395-.7818-1.9081-.9938-.7685-.2385-1.78882-.4638-3.06088-.6758-1.69609-.318-3.0609-.636-4.09445-.954-1.03355-.3445-1.92135-.9143-2.66338-1.7094-.71554-.795-1.073303-1.8948-1.073303-3.2994 0-1.749.728783-3.1801 2.186353-4.2932 1.45757-1.113 3.48492-1.6695 6.08205-1.6695 1.35161 0 2.70311.1855 4.05471.5565 1.3515.3445 2.4646.8083 3.3391 1.3913l-1.2323 2.2659c-1.7225-1.1926-3.7764-1.7889-6.16151-1.7889-1.80209 0-3.16691.318-4.09445.9541-.90105.636-1.35157 1.4708-1.35157 2.5043 0 .7951.25177 1.4311.75529 1.9081.53003.4771 1.17931.8348 1.94784 1.0733.76854.212 1.82859.4373 3.18016.6758 1.66954.318 3.00794.636 4.01494.9541 1.0071.318 1.8683.8613 2.5839 1.6298.7155.7685 1.0733 1.8286 1.0733 3.1801 0 1.8286-.7686 3.2862-2.3056 4.3728-1.5106 1.06-3.6175 1.59-6.32059 1.59z"/><path d="m32.6466 32.4192c-.53.477-1.1793.8481-1.9479 1.1131-.7685.2385-1.5768.3577-2.4248.3577-1.9611 0-3.4717-.53-4.5318-1.59-1.06-1.0601-1.59-2.5574-1.59-4.492v-19.59771h2.8224v4.57151h6.3205v2.3851h-6.3205v12.4821c0 1.2455.3047 2.1996.9143 2.8621.6095.636 1.4973.9541 2.6633.9541 1.2721 0 2.3056-.3578 3.1007-1.0733z"/><path d="m56.1058 12.7818v20.9095h-2.7031v-4.1342c-.8481 1.4045-1.9744 2.4778-3.3789 3.2199-1.3781.742-2.9417 1.113-4.6908 1.113-1.9611 0-3.7366-.4505-5.3267-1.3515-1.5901-.9011-2.8357-2.1599-3.7367-3.7765-.901-1.6165-1.3516-3.4584-1.3516-5.5255s.4506-3.9089 1.3516-5.5255 2.1466-2.8621 3.7367-3.7367c1.5901-.901 3.3656-1.3515 5.3267-1.3515 1.6961 0 3.2199.3577 4.5715 1.0733 1.3781.689 2.5044 1.7093 3.3789 3.0608v-3.9751zm-10.5343 18.6039c1.4576 0 2.7694-.3313 3.9355-.9938 1.1925-.6891 2.1201-1.6564 2.7826-2.9019.6891-1.2456 1.0336-2.6634 1.0336-4.2535s-.3445-3.0079-1.0336-4.2534c-.6625-1.2456-1.5901-2.1996-2.7826-2.8622-1.1661-.689-2.4779-1.0335-3.9355-1.0335-1.484 0-2.8223.3445-4.0149 1.0335-1.1661.6626-2.0936 1.6166-2.7826 2.8622-.6626 1.2455-.9938 2.6633-.9938 4.2534s.3312 3.0079.9938 4.2535c.689 1.2455 1.6165 2.2128 2.7826 2.9019 1.1926.6625 2.5309.9938 4.0149.9938z"/><path d="m70.4059 6.3817c-1.219 0-2.1466.33126-2.7826.99379-.6095.66254-.9143 1.64309-.9143 2.94161v2.4647h6.4398v2.3851h-6.3603v18.5244h-2.8224v-23.4934c0-1.90811.5433-3.41868 1.6299-4.53174 1.113-1.11305 2.6766-1.66958 4.6907-1.66958.795 0 1.5636.11926 2.3056.35777.742.21201 1.3648.53003 1.8683.95405l-.954 2.10685c-.8215-.68904-1.8551-1.03355-3.1007-1.03355z"/><path d="m83.4107 6.3817c-1.219 0-2.1466.33126-2.7826.99379-.6095.66254-.9143 1.64309-.9143 2.94161v2.4647h6.4398v2.3851h-6.3603v18.5244h-2.8224v-23.4934c0-1.90811.5433-3.41868 1.6298-4.53174 1.1131-1.11305 2.6767-1.66958 4.6908-1.66958.795 0 1.5635.11926 2.3056.35777.742.21201 1.3648.53003 1.8683.95405l-.954 2.10685c-.8216-.68904-1.8551-1.03355-3.1007-1.03355z"/><path d="m95.5807 33.89c-1.6961 0-3.3259-.2385-4.8895-.7155-1.5371-.5035-2.7429-1.1263-3.6174-1.8683l1.2721-2.2262c.8745.6891 1.9743 1.2589 3.2994 1.7094 1.325.424 2.7031.636 4.1342.636 1.9081 0 3.3126-.2915 4.2137-.8745.9278-.6096 1.3908-1.4576 1.3908-2.5442 0-.7685-.251-1.3648-.755-1.7888-.503-.4505-1.1393-.7818-1.9079-.9938-.7685-.2385-1.7888-.4638-3.0609-.6758-1.6961-.318-3.0609-.636-4.0944-.954-1.0336-.3445-1.9214-.9143-2.6634-1.7094-.7155-.795-1.0733-1.8948-1.0733-3.2994 0-1.749.7288-3.1801 2.1863-4.2932 1.4576-1.113 3.485-1.6695 6.0821-1.6695 1.3516 0 2.7031.1855 4.0545.5565 1.352.3445 2.465.8083 3.339 1.3913l-1.232 2.2659c-1.723-1.1926-3.7764-1.7889-6.1615-1.7889-1.8021 0-3.1669.318-4.0945.9541-.901.636-1.3515 1.4708-1.3515 2.5043 0 .7951.2517 1.4311.7553 1.9081.53.4771 1.1793.8348 1.9478 1.0733.7685.212 1.8286.4373 3.1802.6758 1.6695.318 3.0079.636 4.0152.9541 1.007.318 1.868.8613 2.584 1.6298.715.7685 1.073 1.8286 1.073 3.1801 0 1.8286-.769 3.2862-2.306 4.3728-1.51 1.06-3.6172 1.59-6.3203 1.59z"/><path d="m118.091 33.89c-2.068 0-3.923-.4505-5.566-1.3515-1.616-.9011-2.888-2.1599-3.816-3.7765-.927-1.643-1.391-3.4849-1.391-5.5255s.464-3.8692 1.391-5.4857c.928-1.6166 2.2-2.8754 3.816-3.7765 1.643-.901 3.498-1.3515 5.566-1.3515 1.802 0 3.405.3577 4.81 1.0733 1.431.689 2.557 1.7093 3.378 3.0608l-2.106 1.4311c-.689-1.0335-1.564-1.8021-2.624-2.3056-1.06-.53-2.213-.795-3.458-.795-1.511 0-2.876.3445-4.095 1.0335-1.192.6626-2.133 1.6166-2.822 2.8622-.663 1.2455-.994 2.6633-.994 4.2534 0 1.6166.331 3.0477.994 4.2932.689 1.2191 1.63 2.1731 2.822 2.8622 1.219.6625 2.584.9938 4.095.9938 1.245 0 2.398-.2518 3.458-.7553s1.935-1.2721 2.624-2.3056l2.106 1.431c-.821 1.3516-1.947 2.3851-3.378 3.1007-1.432.689-3.035 1.0335-4.81 1.0335z"/><path d="m150.555 12.7818v20.9095h-2.703v-4.1342c-.848 1.4045-1.974 2.4778-3.379 3.2199-1.378.742-2.941 1.113-4.69 1.113-1.961 0-3.737-.4505-5.327-1.3515-1.59-.9011-2.836-2.1599-3.737-3.7765-.901-1.6165-1.351-3.4584-1.351-5.5255s.45-3.9089 1.351-5.5255 2.147-2.8621 3.737-3.7367c1.59-.901 3.366-1.3515 5.327-1.3515 1.696 0 3.22.3577 4.571 1.0733 1.378.689 2.505 1.7093 3.379 3.0608v-3.9751zm-10.534 18.6039c1.458 0 2.77-.3313 3.936-.9938 1.192-.6891 2.12-1.6564 2.782-2.9019.689-1.2456 1.034-2.6634 1.034-4.2535s-.345-3.0079-1.034-4.2534c-.662-1.2456-1.59-2.1996-2.782-2.8622-1.166-.689-2.478-1.0335-3.936-1.0335-1.484 0-2.822.3445-4.015 1.0335-1.166.6626-2.093 1.6166-2.782 2.8622-.663 1.2455-.994 2.6633-.994 4.2534s.331 3.0079.994 4.2535c.689 1.2455 1.616 2.2128 2.782 2.9019 1.193.6625 2.531.9938 4.015.9938z"/><path d="m169.069 12.6228c2.624 0 4.704.7685 6.241 2.3056 1.564 1.5105 2.346 3.7234 2.346 6.6385v12.1244h-2.823v-11.8461c0-2.1731-.543-3.8294-1.63-4.969-1.086-1.1395-2.636-1.7093-4.65-1.7093-2.253 0-4.042.6758-5.367 2.0273-1.299 1.3251-1.948 3.1669-1.948 5.5255v10.9716h-2.822v-20.9095h2.703v3.8559c.768-1.2721 1.828-2.2526 3.18-2.9416 1.378-.7156 2.968-1.0733 4.77-1.0733z"/></g><path d="m95.1794 6.9077c0-3.59254 2.9124-6.504868 6.5046-6.504868h31.991c3.592 0 6.504 2.912328 6.504 6.504858v31.99031c0 3.5925-2.912 6.5048-6.504 6.5048h-31.991c-3.5922 0-6.5046-2.9123-6.5046-6.5048z" fill="#29abe2"/><path d="m95.1794 31.4127c.199.0083.399.0125.6.0125 1.9081 0 3.3127-.2915 4.2138-.8745.9278-.6096 1.3908-1.4576 1.3908-2.5441 0-.7686-.251-1.3649-.755-1.7889-.503-.4505-1.1394-.7818-1.9079-.9938-.7685-.2385-1.7888-.4638-3.0609-.6758-.1633-.0306-.3236-.0612-.4808-.0918v-2.5475c.4135.083.8652.1677 1.3553.2542 1.6696.318 3.0079.6361 4.0153.9541 1.007.318 1.868.8613 2.584 1.6298.715.7685 1.073 1.8286 1.073 3.1801 0 1.8286-.769 3.2862-2.306 4.3728-1.51 1.06-3.6172 1.59-6.3203 1.59-.1342 0-.2679-.0015-.4013-.0044z" fill="#fff"/><path d="m140.179 12.6292c-.131-.0044-.263-.0066-.396-.0066-1.961 0-3.737.4505-5.327 1.3515-1.59.8746-2.836 2.1201-3.737 3.7367s-1.351 3.4584-1.351 5.5255.45 3.909 1.351 5.5255c.901 1.6166 2.147 2.8754 3.737 3.7765 1.59.901 3.366 1.3515 5.327 1.3515.133 0 .265-.0021.396-.0064v-2.4992c-.052.0008-.105.0013-.158.0013-1.484 0-2.822-.3313-4.015-.9938-1.166-.6891-2.093-1.6564-2.782-2.9019-.663-1.2456-.994-2.6634-.994-4.2535s.331-3.0079.994-4.2534c.689-1.2456 1.616-2.1996 2.782-2.8622 1.193-.689 2.531-1.0335 4.015-1.0335.053 0 .106.0004.158.0013z" fill="#fff"/><path d="m95.1794 15.0775v-2.4305c.2977-.0163.6037-.0244.9181-.0244 1.3515 0 2.7031.1855 4.0545.5565 1.352.3445 2.465.8083 3.339 1.3913l-1.232 2.2659c-1.723-1.1926-3.7764-1.7889-6.1615-1.7889-.3198 0-.6258.01-.9181.0301z" fill="#fff"/><path d="m112.525 32.5383c1.643.901 3.498 1.3515 5.566 1.3515 1.775 0 3.378-.3445 4.81-1.0335 1.431-.7155 2.557-1.7491 3.378-3.1007l-2.106-1.431c-.689 1.0335-1.564 1.8021-2.624 2.3056s-2.213.7553-3.458.7553c-1.511 0-2.876-.3313-4.095-.9938-1.192-.6891-2.133-1.6431-2.822-2.8622-.663-1.2455-.994-2.6766-.994-4.2932 0-1.5901.331-3.0079.994-4.2534.689-1.2456 1.63-2.1996 2.822-2.8622 1.219-.689 2.584-1.0335 4.095-1.0335 1.245 0 2.398.265 3.458.795 1.06.5035 1.935 1.2721 2.624 2.3056l2.106-1.431c-.821-1.3516-1.947-2.3719-3.378-3.0609-1.405-.7156-3.008-1.0733-4.81-1.0733-2.068 0-3.923.4505-5.566 1.3515-1.616.9011-2.888 2.1599-3.816 3.7765-.927 1.6165-1.391 3.4451-1.391 5.4857s.464 3.8825 1.391 5.5255c.928 1.6166 2.2 2.8754 3.816 3.7765z" fill="#fff"/></svg>

<svg width="178" height="46" viewBox="0 0 178 46" fill="none" xmlns="http://www.w3.org/2000/svg">
<path d="M8.50691 33.89C6.81083 33.89 5.181 33.6515 3.61743 33.1745C2.08035 32.671 0.874542 32.0482 0 31.3062L1.27206 29.08C2.1466 29.7691 3.24641 30.3389 4.57147 30.7894C5.89654 31.2134 7.2746 31.4254 8.70567 31.4254C10.6138 31.4254 12.0183 31.1339 12.9194 30.5509C13.8469 29.9413 14.3107 29.0933 14.3107 28.0067C14.3107 27.2382 14.0589 26.6419 13.5554 26.2179C13.0519 25.7674 12.4159 25.4361 11.6473 25.2241C10.8788 24.9856 9.85848 24.7603 8.58642 24.5483C6.89033 24.2303 5.52552 23.9123 4.49197 23.5943C3.45842 23.2498 2.57062 22.68 1.82859 21.8849C1.11305 21.0899 0.755287 19.9901 0.755287 18.5855C0.755287 16.8365 1.48407 15.4054 2.94164 14.2923C4.39921 13.1793 6.42656 12.6228 9.02369 12.6228C10.3753 12.6228 11.7268 12.8083 13.0784 13.1793C14.4299 13.5238 15.543 13.9876 16.4175 14.5706L15.1852 16.8365C13.4627 15.6439 11.4088 15.0476 9.02369 15.0476C7.2216 15.0476 5.85678 15.3656 4.92924 16.0017C4.02819 16.6377 3.57767 17.4725 3.57767 18.506C3.57767 19.3011 3.82944 19.9371 4.33296 20.4141C4.86299 20.8912 5.51227 21.2489 6.2808 21.4874C7.04934 21.6994 8.10939 21.9247 9.46096 22.1632C11.1305 22.4812 12.4689 22.7992 13.4759 23.1173C14.483 23.4353 15.3442 23.9786 16.0598 24.7471C16.7753 25.5156 17.1331 26.5757 17.1331 27.9272C17.1331 29.7558 16.3645 31.2134 14.8275 32.3C13.3169 33.36 11.21 33.89 8.50691 33.89Z" fill="black"/>
<path d="M32.6466 32.4192C32.1166 32.8962 31.4673 33.2673 30.6987 33.5323C29.9302 33.7708 29.1219 33.89 28.2739 33.89C26.3128 33.89 24.8022 33.36 23.7421 32.3C22.6821 31.2399 22.1521 29.7426 22.1521 27.808V8.21029H24.9745V12.7818H31.295V15.1669H24.9745V27.649C24.9745 28.8945 25.2792 29.8486 25.8888 30.5111C26.4983 31.1471 27.3861 31.4652 28.5521 31.4652C29.8242 31.4652 30.8577 31.1074 31.6528 30.3919L32.6466 32.4192Z" fill="black"/>
<path d="M56.1058 12.7818V33.6913H53.4027V29.5571C52.5546 30.9616 51.4283 32.0349 50.0238 32.777C48.6457 33.519 47.0821 33.89 45.333 33.89C43.3719 33.89 41.5964 33.4395 40.0063 32.5385C38.4162 31.6374 37.1706 30.3786 36.2696 28.762C35.3686 27.1455 34.918 25.3036 34.918 23.2365C34.918 21.1694 35.3686 19.3276 36.2696 17.711C37.1706 16.0944 38.4162 14.8489 40.0063 13.9743C41.5964 13.0733 43.3719 12.6228 45.333 12.6228C47.0291 12.6228 48.5529 12.9805 49.9045 13.6961C51.2826 14.3851 52.4089 15.4054 53.2834 16.7569V12.7818H56.1058ZM45.5715 31.3857C47.0291 31.3857 48.3409 31.0544 49.507 30.3919C50.6995 29.7028 51.6271 28.7355 52.2896 27.49C52.9787 26.2444 53.3232 24.8266 53.3232 23.2365C53.3232 21.6464 52.9787 20.2286 52.2896 18.9831C51.6271 17.7375 50.6995 16.7835 49.507 16.1209C48.3409 15.4319 47.0291 15.0874 45.5715 15.0874C44.0875 15.0874 42.7492 15.4319 41.5566 16.1209C40.3905 16.7835 39.463 17.7375 38.774 18.9831C38.1114 20.2286 37.7802 21.6464 37.7802 23.2365C37.7802 24.8266 38.1114 26.2444 38.774 27.49C39.463 28.7355 40.3905 29.7028 41.5566 30.3919C42.7492 31.0544 44.0875 31.3857 45.5715 31.3857Z" fill="black"/>
<path d="M70.4059 6.3817C69.1869 6.3817 68.2593 6.71296 67.6233 7.37549C67.0138 8.03803 66.709 9.01858 66.709 10.3171V12.7818H73.1488V15.1669H66.7885V33.6913H63.9661V10.1979C63.9661 8.28979 64.5094 6.77922 65.596 5.66616C66.709 4.55311 68.2726 3.99658 70.2867 3.99658C71.0817 3.99658 71.8503 4.11584 72.5923 4.35435C73.3343 4.56636 73.9571 4.88438 74.4606 5.3084L73.5066 7.41525C72.6851 6.72621 71.6515 6.3817 70.4059 6.3817Z" fill="black"/>
<path d="M83.4107 6.3817C82.1917 6.3817 81.2641 6.71296 80.6281 7.37549C80.0186 8.03803 79.7138 9.01858 79.7138 10.3171V12.7818H86.1536V15.1669H79.7933V33.6913H76.9709V10.1979C76.9709 8.28979 77.5142 6.77922 78.6007 5.66616C79.7138 4.55311 81.2774 3.99658 83.2915 3.99658C84.0865 3.99658 84.855 4.11584 85.5971 4.35435C86.3391 4.56636 86.9619 4.88438 87.4654 5.3084L86.5114 7.41525C85.6898 6.72621 84.6563 6.3817 83.4107 6.3817Z" fill="black"/>
<path d="M95.5807 33.89C93.8846 33.89 92.2548 33.6515 90.6912 33.1745C89.1541 32.671 87.9483 32.0482 87.0738 31.3062L88.3459 29.08C89.2204 29.7691 90.3202 30.3389 91.6453 30.7894C92.9703 31.2134 94.3484 31.4254 95.7795 31.4254C97.6876 31.4254 99.0921 31.1339 99.9932 30.5509C100.921 29.9413 101.384 29.0933 101.384 28.0067C101.384 27.2382 101.133 26.6419 100.629 26.2179C100.126 25.7674 99.4897 25.4361 98.7211 25.2241C97.9526 24.9856 96.9323 24.7603 95.6602 24.5483C93.9641 24.2303 92.5993 23.9123 91.5658 23.5943C90.5322 23.2498 89.6444 22.68 88.9024 21.8849C88.1869 21.0899 87.8291 19.9901 87.8291 18.5855C87.8291 16.8365 88.5579 15.4054 90.0154 14.2923C91.473 13.1793 93.5004 12.6228 96.0975 12.6228C97.4491 12.6228 98.8006 12.8083 100.152 13.1793C101.504 13.5238 102.617 13.9876 103.491 14.5706L102.259 16.8365C100.536 15.6439 98.4826 15.0476 96.0975 15.0476C94.2954 15.0476 92.9306 15.3656 92.003 16.0017C91.102 16.6377 90.6515 17.4725 90.6515 18.506C90.6515 19.3011 90.9032 19.9371 91.4068 20.4141C91.9368 20.8912 92.5861 21.2489 93.3546 21.4874C94.1231 21.6994 95.1832 21.9247 96.5348 22.1632C98.2043 22.4812 99.5427 22.7992 100.55 23.1173C101.557 23.4353 102.418 23.9786 103.134 24.7471C103.849 25.5156 104.207 26.5757 104.207 27.9272C104.207 29.7558 103.438 31.2134 101.901 32.3C100.391 33.36 98.2838 33.89 95.5807 33.89Z" fill="black"/>
<path d="M118.091 33.89C116.023 33.89 114.168 33.4395 112.525 32.5385C110.909 31.6374 109.637 30.3786 108.709 28.762C107.782 27.119 107.318 25.2771 107.318 23.2365C107.318 21.1959 107.782 19.3673 108.709 17.7508C109.637 16.1342 110.909 14.8754 112.525 13.9743C114.168 13.0733 116.023 12.6228 118.091 12.6228C119.893 12.6228 121.496 12.9805 122.901 13.6961C124.332 14.3851 125.458 15.4054 126.279 16.7569L124.173 18.188C123.484 17.1545 122.609 16.3859 121.549 15.8824C120.489 15.3524 119.336 15.0874 118.091 15.0874C116.58 15.0874 115.215 15.4319 113.996 16.1209C112.804 16.7835 111.863 17.7375 111.174 18.9831C110.511 20.2286 110.18 21.6464 110.18 23.2365C110.18 24.8531 110.511 26.2842 111.174 27.5297C111.863 28.7488 112.804 29.7028 113.996 30.3919C115.215 31.0544 116.58 31.3857 118.091 31.3857C119.336 31.3857 120.489 31.1339 121.549 30.6304C122.609 30.1269 123.484 29.3583 124.173 28.3248L126.279 29.7558C125.458 31.1074 124.332 32.1409 122.901 32.8565C121.469 33.5455 119.866 33.89 118.091 33.89Z" fill="black"/>
<path d="M150.555 12.7818V33.6913H147.852V29.5571C147.004 30.9616 145.878 32.0349 144.473 32.777C143.095 33.519 141.532 33.89 139.783 33.89C137.822 33.89 136.046 33.4395 134.456 32.5385C132.866 31.6374 131.62 30.3786 130.719 28.762C129.818 27.1455 129.368 25.3036 129.368 23.2365C129.368 21.1694 129.818 19.3276 130.719 17.711C131.62 16.0944 132.866 14.8489 134.456 13.9743C136.046 13.0733 137.822 12.6228 139.783 12.6228C141.479 12.6228 143.003 12.9805 144.354 13.6961C145.732 14.3851 146.859 15.4054 147.733 16.7569V12.7818H150.555ZM140.021 31.3857C141.479 31.3857 142.791 31.0544 143.957 30.3919C145.149 29.7028 146.077 28.7355 146.739 27.49C147.428 26.2444 147.773 24.8266 147.773 23.2365C147.773 21.6464 147.428 20.2286 146.739 18.9831C146.077 17.7375 145.149 16.7835 143.957 16.1209C142.791 15.4319 141.479 15.0874 140.021 15.0874C138.537 15.0874 137.199 15.4319 136.006 16.1209C134.84 16.7835 133.913 17.7375 133.224 18.9831C132.561 20.2286 132.23 21.6464 132.23 23.2365C132.23 24.8266 132.561 26.2444 133.224 27.49C133.913 28.7355 134.84 29.7028 136.006 30.3919C137.199 31.0544 138.537 31.3857 140.021 31.3857Z" fill="black"/>
<path d="M169.069 12.6228C171.693 12.6228 173.773 13.3913 175.31 14.9284C176.874 16.4389 177.656 18.6518 177.656 21.5669V33.6913H174.833V21.8452C174.833 19.6721 174.29 18.0158 173.203 16.8762C172.117 15.7367 170.567 15.1669 168.553 15.1669C166.3 15.1669 164.511 15.8427 163.186 17.1942C161.887 18.5193 161.238 20.3611 161.238 22.7197V33.6913H158.416V12.7818H161.119V16.6377C161.887 15.3656 162.947 14.3851 164.299 13.6961C165.677 12.9805 167.267 12.6228 169.069 12.6228Z" fill="black"/>
<path d="M95.1794 6.9077C95.1794 3.31516 98.0918 0.402832 101.684 0.402832H133.675C137.267 0.402832 140.179 3.31516 140.179 6.90769V38.898C140.179 42.4905 137.267 45.4028 133.675 45.4028H101.684C98.0918 45.4028 95.1794 42.4905 95.1794 38.898V6.9077Z" fill="#29ABE2"/>
<path d="M95.1794 31.4127C95.3784 31.421 95.5784 31.4252 95.7794 31.4252C97.6875 31.4252 99.0921 31.1337 99.9932 30.5507C100.921 29.9411 101.384 29.0931 101.384 28.0066C101.384 27.238 101.133 26.6417 100.629 26.2177C100.126 25.7672 99.4896 25.4359 98.7211 25.2239C97.9526 24.9854 96.9323 24.7601 95.6602 24.5481C95.4969 24.5175 95.3366 24.4869 95.1794 24.4563V21.9088C95.5929 21.9918 96.0446 22.0765 96.5347 22.163C98.2043 22.481 99.5426 22.7991 100.55 23.1171C101.557 23.4351 102.418 23.9784 103.134 24.7469C103.849 25.5154 104.207 26.5755 104.207 27.927C104.207 29.7556 103.438 31.2132 101.901 32.2998C100.391 33.3598 98.2838 33.8898 95.5807 33.8898C95.4465 33.8898 95.3128 33.8883 95.1794 33.8854V31.4127Z" fill="white"/>
<path d="M140.179 12.6292C140.048 12.6248 139.916 12.6226 139.783 12.6226C137.822 12.6226 136.046 13.0731 134.456 13.9741C132.866 14.8487 131.62 16.0942 130.719 17.7108C129.818 19.3274 129.368 21.1692 129.368 23.2363C129.368 25.3034 129.818 27.1453 130.719 28.7618C131.62 30.3784 132.866 31.6372 134.456 32.5383C136.046 33.4393 137.822 33.8898 139.783 33.8898C139.916 33.8898 140.048 33.8877 140.179 33.8834V31.3842C140.127 31.385 140.074 31.3855 140.021 31.3855C138.537 31.3855 137.199 31.0542 136.006 30.3917C134.84 29.7026 133.913 28.7353 133.224 27.4898C132.561 26.2442 132.23 24.8264 132.23 23.2363C132.23 21.6462 132.561 20.2284 133.224 18.9829C133.913 17.7373 134.84 16.7833 136.006 16.1207C137.199 15.4317 138.537 15.0872 140.021 15.0872C140.074 15.0872 140.127 15.0876 140.179 15.0885V12.6292Z" fill="white"/>
<path d="M95.1794 15.0775V12.647C95.4771 12.6307 95.7831 12.6226 96.0975 12.6226C97.449 12.6226 98.8006 12.8081 100.152 13.1791C101.504 13.5236 102.617 13.9874 103.491 14.5704L102.259 16.8363C100.536 15.6437 98.4826 15.0474 96.0975 15.0474C95.7777 15.0474 95.4717 15.0574 95.1794 15.0775Z" fill="white"/>
<path d="M112.525 32.5383C114.168 33.4393 116.023 33.8898 118.091 33.8898C119.866 33.8898 121.469 33.5453 122.901 32.8563C124.332 32.1408 125.458 31.1072 126.279 29.7556L124.173 28.3246C123.484 29.3581 122.609 30.1267 121.549 30.6302C120.489 31.1337 119.336 31.3855 118.091 31.3855C116.58 31.3855 115.215 31.0542 113.996 30.3917C112.804 29.7026 111.863 28.7486 111.174 27.5295C110.511 26.284 110.18 24.8529 110.18 23.2363C110.18 21.6462 110.511 20.2284 111.174 18.9829C111.863 17.7373 112.804 16.7833 113.996 16.1207C115.215 15.4317 116.58 15.0872 118.091 15.0872C119.336 15.0872 120.489 15.3522 121.549 15.8822C122.609 16.3857 123.484 17.1543 124.173 18.1878L126.279 16.7568C125.458 15.4052 124.332 14.3849 122.901 13.6959C121.496 12.9803 119.893 12.6226 118.091 12.6226C116.023 12.6226 114.168 13.0731 112.525 13.9741C110.909 14.8752 109.637 16.134 108.709 17.7506C107.782 19.3671 107.318 21.1957 107.318 23.2363C107.318 25.2769 107.782 27.1188 108.709 28.7618C109.637 30.3784 110.909 31.6372 112.525 32.5383Z" fill="white"/>
</svg>
